src/main/resources/img/action/Save_dark.svg

<svg xmlns="http://www.w3.org/2000/svg" width="16" height="16"><path fill="#AFB1B3" fill-rule="evenodd" d="M11 14v-3H5v3H2V2h12v12h-3ZM4 4v4h8V4H4Zm2 8h4v2H6v-2Z"/></svg>

<!-- Copyright 2000-2021 JetBrains s.r.o. Use of this source code is governed by the Apache 2.0 license that can be found in the LICENSE file. -->
<svg xmlns="http://www.w3.org/2000/svg" width="16" height="16" viewBox="0 0 16 16">
  <path fill="#AFB1B3" fill-rule="evenodd" d="M11,14 L11,11 L5,11 L5,14 L2,14 L2,2 L14,2 L14,14 L11,14 Z M4,4 L4,8 L12,8 L12,4 L4,4 Z M6,12 L10,12 L10,14 L6,14 L6,12 Z"/>
</svg>
